X:1048
T:Matshanso Mats
S:Älvdalspolska
S:Efter Jonas "Jalle" Hjalmarsson
Z:[[http://www.bluerose.karenlmyers.org/IncipitsPolskaAlvdalen2.html|Karen Myers (#1048)]]
Z:Upptecknad 6/2006
M:3/4
L:1/8
R:Polska
O:Álvdalen, Dalarna
K:Am
A>c d(e f)e/d/ | eg f2 (e>d) | e>d c2 {d}c>(A | B)A/G/ A4 :|
|: A>c d(e f)e/d/ | eg a2 ((3aba) | g>e {e}f2 (ed) | {d}e2 (e2- e>c) :|
ue>c A2 vg2 | vgf/e/ f2 d>(f | e>)d c(d c>)A | BA/G/ A4 |]
